X:1
T:Title
%%score { 1 | 2 }
L:1/8
Q:1/4=82
M:4/4
K:Gb
V:1 treble nm="Grand Piano"
V:2 bass 
V:1
 B2 Bc B2 A2 | GF[DG]A B4 | d2 de d2 c2 | BAB=c [Fd]4 | d2 dB [Ec]2 A2 | B[DG][Ec][Ec] [DA]4 | %6
w: A.~J.~Showalter * * * *||||||
 [DGB]2 [CFA][D_FG] [CEG]2 [CEA]2 | [B,DG][A,DF][A,CE][A,CF] [G,B,G]4 |] %8
w: ||
V:2
 [G,D]2 [G,D][G,E] [G,D]2 [D,F,C]2 | [E,G,B,][D,A,D][B,,G,][D,F,D] [G,D]4 | %2
 [G,B,G]2 [G,B,G][B,CG] [B,DG]2 [A,DF]2 | [G,DG][F,D][K:treble][G,DG][A,G][K:bass] [D,A,]4 | %4
 [G,B,G]2 [G,B,G][G,_F] [C,G,]2 [D,F,D]2 | [G,D][B,,G,][C,G,][C,G,] [D,F,]4 | %6
 G,,2 A,,B,, C,2 A,,2 | D,D,D,D, G,,4 |] %8

